X:64
T:Grants Hornpipe. JMP.064
T:Chester Castle,aka. JMP.064
T:Recruit,The,aka. JMP.064
M:C|
L:1/8
Q:1/2=90
C:â€69â€³
S:John Miller MS. Perth, 1799.(for the fife)
R:.Hornpipe
O:Scotland
A:Perth
N:aka Grantâ€™s Rant, aka New Hornpipe..
H:1799
Z:vmp.C. Graebe
K:D major
â€œ_Key in MS is G majorâ€DF | A3B AFDF | AFdF AFDF |\
GBGE FAFD | E2 EE E2 AG |!
ADFA d2 df |edcB A2 Bc | dfdB BdB^G | A2 AA A2 :|!
|: cd |\
(e3 e/)f ecAc | ecac ecAc |dfdB cecA | B2 BBB2 Bc |!
d3B AFDF | GABc d2 cB | AGFE DEFE | F2 DD D2 ğŸ˜

